X:263
T:Frost is all over, The
R:jig
H:See also #67, #206
H:There is another tune by the same name: #202
D:Paul McGrattan: The Frost is all over
Z:id:hn-jig-263
M:6/8
K:D
def edc|dAF GFE|DFA DFA|Bcd edc|
def edc|dAF GFE|DFA DFA|1 Bdc d2A:|2 Bdc d2e||
~f3 afd|~g3 bag|~f3 afd|gfg efg|
~f3 afd|~g3 bag|fga efg|fdc d2e|
~f3 afd|~g3 bag|~f3 afd|~g3 e2g|
fga efg|fdB AFA|Bcd ede|fdf gfe||
